X: 15
T: No_23_Song_of_a_Medicine_Man_at_Nitinat_Lake_(a).krn
N: Derived from No_23_Song_of_a_Medicine_Man_at_Nitinat_Lake_(a).krn
%%abc-version 2.0
%%abcx-abcm2ps-target-version 5.9.1 (29 Sep 2008)
%%abc-creator hum2abc beta
%%abcx-conversion-date 2019/03/15 08:26:49
%%humdrum-veritas 2745942571
%%humdrum-veritas-data 205032361
%%linebreak <none>
%%barnumbers 0
L: 1/8
M: 2/4
%%staves {1 2}
V: 1 clef=bass
V: 2 clef=bass
K: Eb
[V:1] [K:clef=bass][M:2/4]z C CB, [I:setbarnb 2]:|]|:  
[V:2] [K:clef=bass][M:2/4]G,,G,, G,,G,, :|]|:  
[V:1] C4- | 
[V:2] G,,G,,z2 | 
[V:1] CD CB, ||  
[V:2] z4 ||  
[V:1] [M:3/4]C2B, z CB, ||  
[V:2] [M:3/4]z6 ||  
[V:1] [M:2/4](C4 | 
[V:2] [M:2/4]z4 | 
[V:1] B,/) z/ B, B,B, ||  
[V:2] z4 ||  
[V:1] [M:7/8]B,2G, z CCC ||  
[V:2] [M:7/8]z7 ||  
[V:1] [M:5/8]CB,/ z/ C/B,/B,B, | 
[V:2] [M:5/8](3:2:1z15/ | 
[V:1] B,2G, z C/B,/ ||  
[V:2] (3:2:1z15/ ||  
[V:1] [M:2/4]B,B, C/B,/G, | 
[V:2] [M:2/4]z4 | 
[V:1] G,G, G,G, ||  
[V:2] z4 ||  
[V:1] [M:5/8]G,G,/F,/ z B,G, ||  
[V:2] [M:5/8](3:2:1z15/ ||  
[V:1] [M:3/4]G,4-G, z | 
[V:2] [M:3/4]z6 | 
[V:1] B,G,G,2F,E, ||  
[V:2] z6 ||  
[V:1] [M:2/4](3E,C,C, C, z | 
[V:2] [M:2/4]z4 | 
[V:1] B,4 ||  
[V:2] z4 ||  
[V:1] [M:3/4]B,3G,/ z/ CB, ||  
[V:2] [M:3/4]z6 ||  
[V:1] [M:2/4]CB, G, z | 
[V:2] [M:2/4]z4 | 
[V:1] B,G, G,G, ||  
[V:2] z4 ||  
[V:1] [M:3/4](3F,E,C, z B, B,B, ||  
[V:2] [M:3/4]z6 ||  
[V:1] [M:2/4](3B,G,G, G,G, | 
[V:2] [M:2/4]z4 | 
[V:1] G,F, F,E, | 
[V:2] z4 | 
[V:1] C,F,E,2 ||  
[V:2] z4 ||  
[V:1] [M:3/4]E,C,C,4 | 
[V:2] [M:3/4]z6 | 
[V:1] C,2z C CB, :|]  
[V:2] z6 :|]  
[V:1] C,2z4 |]  
[V:2] z6 |]  



